logos/debian.svg

<?xml version="1.0" encoding="UTF-8" standalone="no"?>
<svg width="256px" height="317px" viewBox="0 0 256 317" version="1.1" xmlns="http://www.w3.org/2000/svg" xmlns:xlink="http://www.w3.org/1999/xlink" preserveAspectRatio="xMidYMid">
	<g fill="#A80030">
		<path d="M152.796616,167.425369 C147.545671,167.498421 153.790117,170.131199 160.645273,171.186063 C162.538769,169.7075 164.256942,168.211404 165.788102,166.756218 C161.51897,167.802315 157.173864,167.825692 152.796616,167.425369"></path>
		<path d="M180.979901,160.400733 C184.106507,156.084848 186.385715,151.359874 187.189282,146.474187 C186.487987,149.957285 184.597414,152.964086 182.817877,156.137446 C173.002673,162.317606 181.894506,152.467336 182.812034,148.724175 C172.257546,162.007867 181.362691,156.689715 180.979901,160.400733"></path>
		<path d="M191.382441,133.330754 C192.016528,123.874962 189.521087,126.864232 188.682455,130.472977 C189.661347,130.981416 190.435693,137.1382 191.382441,133.330754"></path>
		<path d="M132.885687,4.08796433 C135.687944,4.59055894 138.940199,4.97627109 138.484357,5.64542322 C141.549601,4.97334903 142.245051,4.35387195 132.885687,4.08796433"></path>
		<path d="M138.484357,5.64542322 L136.503199,6.05451186 L138.34702,5.8908764 L138.484357,5.64542322"></path>
		<path d="M225.86569,136.916123 C226.178352,145.407634 223.381939,149.527742 220.860199,156.821207 L216.322237,159.088727 C212.608297,166.300376 216.681651,163.667598 214.022575,169.403605 C208.225204,174.558123 196.428841,185.533386 192.653538,186.535654 C189.898033,186.47429 194.520734,183.283399 195.125602,182.032756 C187.364606,187.362597 188.898688,190.033361 177.029273,193.271005 L176.681548,192.499581 C147.408334,206.271258 106.744923,178.979202 107.279661,141.740447 C106.966999,144.104395 106.391354,143.514138 105.742656,144.469653 C104.23195,125.309694 114.590659,106.064996 132.061666,98.207572 C149.149883,89.7482033 169.183538,93.2196126 181.424054,104.627341 C174.700391,95.8202476 161.317348,86.4842604 145.456396,87.3579569 C129.919795,87.60341 115.38546,97.4770565 110.534837,108.195179 C102.575141,113.206515 101.65177,127.512929 98.1832823,130.131096 C93.5167498,164.427334 106.961156,179.245109 129.703562,196.675207 C133.283087,199.08883 130.711673,199.454088 131.196736,201.292065 C123.640283,197.753449 116.720842,192.411919 111.031588,185.872345 C114.050077,190.290502 117.308176,194.585933 121.518867,197.960914 C114.394881,195.547291 104.877725,180.697374 102.098845,180.092507 C114.380271,202.081022 151.925841,218.654956 171.585472,210.432274 C162.489094,210.768311 150.93234,210.619286 140.710969,206.841061 C136.418459,204.631982 130.58018,200.056033 131.623357,199.199869 C158.453727,209.22254 186.169482,206.791385 209.385263,188.180774 C215.290749,183.581449 221.742662,175.756168 223.606937,175.648052 C220.798836,179.87043 224.086155,177.678885 221.929673,181.407435 C227.814706,171.916579 219.37287,177.544469 228.013406,165.017591 L231.204297,169.412371 C230.01794,161.534493 240.987361,151.967664 239.874054,139.507992 C242.38995,135.697623 242.682156,143.607644 240.011391,152.37383 C243.716565,142.649209 240.987361,141.085905 241.939952,133.061924 C242.968518,135.758987 244.318511,138.62553 245.011039,141.471618 C242.597416,132.074267 247.488948,125.645732 248.698681,120.184398 C247.50648,119.655505 244.973052,124.33957 244.394484,113.238657 C244.479224,108.417256 245.73571,110.711074 246.220773,109.524717 C245.274025,108.981213 242.790272,105.284805 241.279566,98.1958837 C242.37534,96.5303086 244.207472,102.514691 245.697724,102.760144 C244.739287,97.1234871 243.088322,92.8251343 243.021115,88.5004829 C238.667243,79.4011828 241.481189,89.7131386 237.948416,84.5936865 C233.314026,70.1382472 241.793849,81.2391597 242.366574,74.6703649 C249.39121,84.8479058 253.397356,100.621195 255.235333,107.154925 C253.832744,99.1893847 251.565224,91.4722197 248.798031,84.0063521 C250.931136,84.903425 245.361686,67.6165079 251.571068,79.0651457 C244.937987,54.6600863 223.183238,31.8563167 203.170038,21.1557267 C205.618726,23.3969481 208.710267,26.2108935 207.599883,26.6521249 C197.647341,20.7261837 199.397655,20.264498 197.97169,17.760291 C189.862969,14.4612834 189.331153,18.0261987 183.960403,17.7661352 C168.678021,9.66033601 165.732583,10.5223442 151.668699,5.44380096 L152.308631,8.43307009 C142.183687,5.06101087 140.512268,9.71293312 129.569147,8.44475834 C128.902917,7.92463135 133.075622,6.56295059 136.509044,6.06327805 C126.720137,7.35482932 127.1789,4.13471732 117.600382,6.41976957 C119.961408,4.76296059 122.456849,3.66718744 124.975666,2.2587537 C116.992593,2.74381594 105.917979,6.90483182 109.336791,3.1207619 C96.3160849,8.92982058 73.1908885,17.0852948 60.2140124,29.2527598 L59.8049238,26.5264762 C53.8585283,33.665073 33.8745482,47.8458384 32.2820246,57.0912417 L30.692423,57.4623435 C27.5979597,62.7016001 25.5963474,68.6392296 23.1418156,74.0304334 C19.0947601,80.926499 17.2100303,76.6836654 17.7856765,77.7648282 C9.82598034,93.903375 5.87243089,107.464663 2.45654075,118.586031 C4.89061816,122.223997 2.51498198,140.486883 3.43543143,155.103036 C-0.561948993,227.289648 54.0981373,297.37822 113.845533,313.560597 C122.602952,316.693048 135.626581,316.573244 146.704117,316.89467 C133.633735,313.157354 131.944783,314.913513 119.213361,310.4749 C110.02932,306.15025 108.01602,301.211965 101.51151,295.566542 L104.085847,300.116191 C91.3281256,295.601606 96.6667323,294.52921 86.2875691,291.241891 L89.0372292,287.650677 C84.9025118,287.338017 78.0853419,280.681559 76.2210666,276.99684 L71.697715,277.175086 C66.2626802,270.468953 63.3669171,265.635863 63.5773055,261.892702 L62.1162747,264.49626 C60.4594657,261.653094 42.1206064,239.346074 51.6348393,244.538578 C49.8669919,242.922678 47.5176543,241.908723 44.9696166,237.280177 L46.9069435,235.065255 C42.3280727,229.174378 38.4797175,221.62377 38.7719237,219.107876 C41.2147672,222.406883 42.909563,223.023438 44.5868265,223.587396 C33.0242283,194.898594 32.3755306,222.006561 23.6181117,194.384311 L25.4706988,194.235286 C24.0505768,192.096336 23.1885686,189.773298 22.0460424,187.494089 L22.8525315,179.45842 C14.5275777,169.833149 20.5236483,138.532024 21.7246156,121.364911 C22.5574032,114.384106 28.6732784,106.953302 33.3252007,95.3001206 L30.4908008,94.8121362 C35.9083032,85.3621887 61.423746,56.8603988 73.2405636,58.3272738 C78.9648825,51.1360799 72.1038815,58.3009752 70.9847319,56.489297 C83.5583634,43.4773562 87.5119129,47.2964908 95.9975802,44.9559193 C105.149478,39.5238067 88.1430783,47.0744141 92.48234,42.8841777 C108.302382,38.8429662 103.69429,33.6972156 124.332812,31.6459283 C126.509749,32.8848825 119.280568,33.5598787 117.465968,35.1670127 C130.647387,28.7180225 159.178398,30.1848974 177.710114,38.7465383 C199.213566,48.7955085 223.373172,78.5011878 224.325764,106.450708 L225.409849,106.742914 C224.860501,117.852593 227.110489,130.700899 223.212459,142.503105 L225.86569,136.916123"></path>
		<path d="M95.4832973,174.634096 L94.7469378,178.315894 C98.1978927,183.002881 100.935865,188.081424 105.342334,191.745689 C102.171897,185.556762 99.8167152,182.999958 95.4832973,174.634096"></path>
		<path d="M103.641693,174.312669 C101.815405,172.293524 100.734243,169.86237 99.5245086,167.43998 C100.681645,171.697424 103.051437,175.355845 105.257594,179.07563 L103.641693,174.312669"></path>
		<path d="M248.00323,142.93557 L247.231806,144.869975 C245.817528,154.916024 242.763974,164.856878 238.082831,174.073061 C243.254879,164.348438 246.600641,153.712134 248.00323,142.93557"></path>
		<path d="M133.923019,1.56914713 C137.473324,0.268829677 142.651217,0.856164081 146.417755,0 C141.508691,0.412010701 136.623004,0.657463884 131.79868,1.27986303 L133.923019,1.56914713"></path>
		<path d="M9.2824769,67.8473509 C10.1006542,75.4213348 3.58445657,78.3609288 10.7259754,73.3671253 C14.5538762,64.7441213 9.22987977,70.9856451 9.2824769,67.8473509"></path>
		<path d="M0.890315672,102.900403 C2.53543641,97.8510804 2.83348671,94.8179803 3.46172998,91.8959186 C-1.08499804,97.7078994 1.3695338,98.9468536 0.890315672,102.900403"></path>
	</g>
</svg>

<svg width="256" height="317" xmlns="http://www.w3.org/2000/svg" preserveAspectRatio="xMidYMid">
	<g fill="#A80030">
		<path d="M152.797 167.425c-5.251.073.993 2.706 7.848 3.761a70.171 70.171 0 0 0 5.143-4.43c-4.269 1.046-8.614 1.07-12.991.67"/>
		<path d="M180.98 160.4c3.127-4.315 5.406-9.04 6.21-13.926-.702 3.483-2.593 6.49-4.372 9.663-9.815 6.18-.923-3.67-.006-7.413-10.554 13.284-1.45 7.966-1.832 11.677"/>
		<path d="M191.382 133.33c.635-9.455-1.86-6.466-2.7-2.857.98.508 1.754 6.665 2.7 2.858"/>
		<path d="M132.886 4.088c2.802.503 6.054.888 5.598 1.557 3.066-.672 3.761-1.291-5.598-1.557"/>
		<path d="m138.484 5.645-1.98.41 1.843-.164.137-.246"/>
		<path d="M225.866 136.916c.312 8.492-2.484 12.612-5.006 19.905l-4.538 2.268c-3.714 7.211.36 4.579-2.3 10.315-5.797 5.154-17.593 16.13-21.368 17.132-2.756-.062 1.867-3.253 2.472-4.503-7.761 5.33-6.227 8-18.097 11.238l-.347-.771c-29.274 13.771-69.937-13.52-69.402-50.76-.313 2.364-.889 1.774-1.537 2.73-1.511-19.16 8.848-38.405 26.319-46.262 17.088-8.46 37.122-4.988 49.362 6.42-6.724-8.808-20.107-18.144-35.968-17.27-15.536.245-30.07 10.12-34.921 20.837-7.96 5.012-8.883 19.318-12.352 21.936-4.666 34.296 8.778 49.114 31.52 66.544 3.58 2.414 1.009 2.78 1.494 4.617-7.557-3.539-14.476-8.88-20.165-15.42 3.018 4.419 6.276 8.714 10.487 12.089-7.124-2.414-16.641-17.264-19.42-17.868 12.281 21.988 49.827 38.562 69.486 30.34-9.096.335-20.653.186-30.874-3.592-4.293-2.209-10.13-6.785-9.088-7.641 26.83 10.023 54.546 7.591 77.762-11.02 5.906-4.599 12.358-12.424 14.222-12.532-2.808 4.222.48 2.03-1.677 5.76 5.885-9.491-2.557-3.864 6.083-16.39l3.191 4.394c-1.186-7.878 9.783-17.444 8.67-29.904 2.516-3.81 2.808 4.1.137 12.866 3.706-9.725.976-11.288 1.929-19.312 1.029 2.697 2.379 5.564 3.071 8.41-2.414-9.398 2.478-15.826 3.688-21.288-1.193-.528-3.726 4.156-4.305-6.945.085-4.822 1.342-2.528 1.827-3.714-.947-.544-3.43-4.24-4.941-11.33 1.095-1.665 2.927 4.32 4.418 4.565-.959-5.637-2.61-9.935-2.677-14.26-4.354-9.099-1.54 1.213-5.073-3.906-4.634-14.456 3.846-3.355 4.419-9.924 7.024 10.178 11.03 25.951 12.868 32.485-1.402-7.966-3.67-15.683-6.437-23.149 2.133.897-3.436-16.39 2.773-4.94-6.633-24.406-28.388-47.21-48.401-57.91 2.449 2.24 5.54 5.055 4.43 5.496-9.953-5.926-8.202-6.388-9.628-8.892-8.109-3.299-8.64.266-14.012.006-15.282-8.106-18.227-7.244-32.291-12.322l.64 2.99c-10.125-3.373-11.797 1.279-22.74.01-.666-.52 3.507-1.881 6.94-2.38-9.789 1.29-9.33-1.93-18.909.356 2.361-1.657 4.857-2.753 7.376-4.161-7.983.485-19.058 4.646-15.64.862-13.02 5.809-36.145 13.964-49.122 26.132l-.41-2.727c-5.945 7.14-25.93 21.32-27.522 30.565l-1.59.371c-3.094 5.24-5.096 11.177-7.55 16.568-4.047 6.896-5.932 2.654-5.356 3.735-7.96 16.138-11.914 29.7-15.33 40.821 2.435 3.638.059 21.9.98 36.517-3.998 72.187 50.662 142.275 110.41 158.458 8.757 3.132 21.78 3.012 32.858 3.334-13.07-3.738-14.76-1.981-27.49-6.42-9.185-4.325-11.198-9.263-17.702-14.908l2.574 4.55c-12.758-4.515-7.42-5.588-17.798-8.875l2.75-3.591c-4.135-.313-10.953-6.97-12.817-10.654l-4.523.178c-5.435-6.706-8.331-11.54-8.12-15.282l-1.462 2.603c-1.657-2.843-19.995-25.15-10.481-19.957-1.768-1.616-4.117-2.63-6.665-7.259l1.937-2.215c-4.579-5.89-8.427-13.441-8.135-15.957 2.443 3.299 4.138 3.915 5.815 4.48-11.563-28.69-12.211-1.581-20.969-29.204l1.853-.149c-1.42-2.139-2.282-4.462-3.425-6.74l.807-8.037c-8.325-9.625-2.33-40.926-1.128-58.093.832-6.98 6.948-14.412 11.6-26.065l-2.834-.488c5.417-9.45 30.933-37.952 42.75-36.485 5.724-7.19-1.137-.026-2.256-1.838 12.573-13.012 16.527-9.193 25.013-11.533 9.151-5.432-7.855 2.118-3.516-2.072 15.82-4.041 11.212-9.187 31.85-11.238 2.178 1.239-5.051 1.914-6.866 3.521 13.181-6.449 41.712-4.982 60.244 3.58 21.504 10.049 45.663 39.754 46.616 67.704l1.084.292c-.55 11.11 1.7 23.958-2.198 35.76l2.654-5.587"/>
		<path d="m95.483 174.634-.736 3.682c3.45 4.687 6.189 9.765 10.595 13.43-3.17-6.19-5.525-8.746-9.859-17.112"/>
		<path d="M103.642 174.313c-1.827-2.02-2.908-4.45-4.117-6.873 1.157 4.257 3.526 7.916 5.733 11.636l-1.616-4.763"/>
		<path d="m248.003 142.936-.771 1.934c-1.414 10.046-4.468 19.987-9.15 29.203 5.173-9.725 8.519-20.36 9.921-31.137"/>
		<path d="M133.923 1.57c3.55-1.301 8.728-.714 12.495-1.57-4.91.412-9.795.657-14.62 1.28l2.125.29"/>
		<path d="M9.282 67.847c.819 7.574-5.698 10.514 1.444 5.52 3.828-8.623-1.496-2.381-1.444-5.52"/>
		<path d="M.89 102.9c1.645-5.049 1.943-8.082 2.572-11.004C-1.085 97.708 1.37 98.946.89 102.9"/>
	</g>
</svg>
